X:157
M:4/4
L:1/4
K:Ab
F | A A G G | F3 A | A A B B | c3 c | e e d d | c c B !sintro!c | B A G G | F3 !eintro!|]
